en/_assets/wiki/svg/table-settings.svg

<svg xmlns="http://www.w3.org/2000/svg" xmlns:xlink="http://www.w3.org/1999/xlink" width="14" height="12" class="yc-icon" fill="currentColor" stroke="none" aria-hidden="true"><svg viewBox="0 0 14 12" xmlns="http://www.w3.org/2000/svg"><path d="M11.875 0.4375H2.125C1.21094 0.4375 0.5 1.17383 0.5 2.0625V10.1875C0.5 11.1016 1.21094 11.8125 2.125 11.8125H11.875C12.7637 11.8125 13.5 11.1016 13.5 10.1875V2.0625C13.5 1.17383 12.7637 0.4375 11.875 0.4375ZM6.39062 10.5938H2.125C1.89648 10.5938 1.71875 10.416 1.71875 10.1875V3.28125H6.39062V10.5938ZM12.2812 10.1875C12.2812 10.416 12.1035 10.5938 11.875 10.5938H7.60938V3.28125H12.2812V10.1875Z"></path></svg></svg>

<svg xmlns="http://www.w3.org/2000/svg" width="14" height="12" fill="currentColor" aria-hidden="true" class="yc-icon">
    <svg xmlns="http://www.w3.org/2000/svg" viewBox="0 0 14 12">
        <path d="M11.875.438h-9.75A1.62 1.62 0 0 0 .5 2.063v8.124c0 .915.71 1.626 1.625 1.626h9.75a1.62 1.62 0 0 0 1.625-1.626V2.063c0-.89-.736-1.626-1.625-1.626ZM6.391 10.594H2.125a.401.401 0 0 1-.406-.406V3.28H6.39v7.313Zm5.89-.406a.401.401 0 0 1-.406.406H7.609V3.28h4.672v6.906Z"/>
    </svg>
</svg>
